X:1
T:Title
%%score { 1 | 2 }
L:1/8
Q:1/4=106
M:4/4
K:G
V:1 treble nm="Grand Piano"
V:2 bass 
V:1
 [DB]2 [DB]>[CA] [B,G]2 [DF][CE] | [CE]2 [B,D]2 [B,D]4 | d2 d>e d2 dc | B2 A2 [FA]4 | %4
w: Elisha~A.~Hoffman * * * * *||||
 [DB]2 [DB]>[CA] [B,G]2 [DF][CE] | [CE]2 [B,D]2 [B,D]4 | [Gd]3 [Ec] B2 A2 | G6 z2 | %8
w: ||||
 [Ec]3 [Ec] [EG]2 [EA]2 | [DB]6 z2 | d3 B d2 B2 | [DFA]2 [^CGA]2 [FA]4 | %12
w: ||||
 [DB]2 [DB]>[CA] [B,G]2 [DF][CE] | [CE]2 [B,D]2 [B,D]4 | [Gd]3 [Ec] B2 A2 | G6 z2 |] %16
w: ||||
V:2
 [G,,G,]2 [G,,G,]>[G,,G,] [G,,G,]2 [G,,G,][G,,G,] | [G,,G,]2 [G,,G,]2 [G,,G,]4 | %2
 [G,B,G]2 [G,B,G]>[G,CG] [G,B,G]2 [G,B,G][G,EG] | [G,DG]2 [A,^CG]2[K:bass] [D,D]4 | %4
 [G,,G,]2 [G,,G,]>[G,,G,] [G,,G,]2 [G,,G,][G,,G,] | [G,,G,]2 [G,,G,]2 [G,,G,]4 | %6
 [B,,G,]3 [C,G,] [D,G,D]2 [D,CD]2 | [G,B,D]6 z2 | [C,G,]3 [C,G,] [C,G,]2 [C,G,]2 | [G,,G,]6 z2 | %10
 [G,B,G]3 [G,DG] [G,B,G]2 [G,DG]2 | D,2 A,,2 [D,D]4 | %12
 [G,,G,]2 [G,,G,]>[G,,G,] [G,,G,]2 [G,,G,][G,,G,] | [G,,G,]2 [G,,G,]2 [G,,G,]4 | %14
 [B,,G,]3 [C,G,] [D,G,D]2 [D,CD]2 | [G,B,D]6 z2 |] %16

